X: 23744
T: Little Bird
R: hornpipe
M: 4/4
K: Gmajor
G/A/|B4-BA/B/ d/B/A/G/|ed-d4 g>f|ed4-d/B/d/e/B|A/G/BA-A4-AG/A/|
B4-BA/B/ d/B/A/G/|ed-d4 g>f|ed4-d/B/d/e/B|1 A/G/G4-G2:|2 A/G/G4-G A/B/d/e/||
e4-e2g>f|ed4-d d/B/d/e/|BA4-A- A/G/A/B/|G4-G2A/B/d/e/|
e4-e2g>f|ed4-d B/A/G/E/|BA4-A A/G/A/B/|1 G4-G2A/B/d/e/:|2 G8||

